symbols/pl/sr2.svg

<?xml version="1.0" encoding="UTF-8"?>
<svg xmlns="http://www.w3.org/2000/svg" xmlns:xlink="http://www.w3.org/1999/xlink" width="9.1948" height="24" viewBox="0 0 9.1948 24">
<path fill-rule="evenodd" fill="rgb(60%, 60%, 60%)" fill-opacity="1" stroke-width="2.1059" stroke-linecap="butt" stroke-linejoin="miter" stroke="rgb(40%, 40%, 40%)" stroke-opacity="1" stroke-miterlimit="4" d="M 12.863184 103.879956 L 43.721833 103.879956 L 43.721833 398.109049 L 12.863184 398.109049 Z M 12.863184 103.879956 " transform="matrix(0.060128, 0, 0, 0.060128, 0, 0)"/>
<path fill-rule="evenodd" fill="rgb(100%, 100%, 100%)" fill-opacity="1" d="M 0.421875 7.8125 L 1.367188 8.761719 L 7.441406 2.6875 L 8.316406 2.453125 L 8.738281 2.03125 L 8.738281 1.175781 L 7.988281 0.425781 L 7.070312 0.425781 L 6.679688 0.816406 L 6.4375 1.710938 Z M 0.421875 7.8125 "/>
<path fill-rule="evenodd" fill="rgb(98.039216%, 1.176471%, 1.176471%)" fill-opacity="1" stroke-width="2" stroke-linecap="butt" stroke-linejoin="miter" stroke="rgb(40%, 40%, 40%)" stroke-opacity="1" stroke-miterlimit="4" d="M 423.110449 176.163815 C 416.082036 176.485376 409.880495 179.838802 405.654259 184.891909 L 259.986956 184.937847 L 259.986956 215.072742 L 405.700197 215.072742 C 410.018307 220.401473 416.679221 223.846773 424.075133 223.800836 C 437.213212 223.800836 447.870675 213.143373 447.870675 200.005294 C 447.870675 186.867215 437.213212 176.209752 424.075133 176.209752 C 423.891383 176.209752 423.661697 176.163815 423.477947 176.163815 C 423.340135 176.209752 423.248261 176.209752 423.110449 176.163815 Z M 266.969431 191.920322 L 419.986709 191.874385 L 420.032647 208.090266 L 266.969431 208.090266 Z M 266.969431 191.920322 " transform="matrix(0.0425172, -0.0425172, 0.0425172, 0.0425172, -18.830999, 11.019)"/>
<path fill-rule="evenodd" fill="rgb(100%, 100%, 100%)" fill-opacity="1" stroke-width="2" stroke-linecap="butt" stroke-linejoin="miter" stroke="rgb(40%, 40%, 40%)" stroke-opacity="1" stroke-miterlimit="4" d="M 444.301273 200.005285 C 444.301273 211.030247 436.158861 219.988028 426.11796 219.988028 C 416.077058 219.988028 407.976835 211.076184 407.934646 200.005285 C 407.976835 188.934386 416.119246 179.976605 426.160148 179.976605 C 436.20105 179.976605 444.343462 188.934386 444.301273 200.005285 Z M 444.301273 200.005285 " transform="matrix(0.046295, -0.046295, 0.0425172, 0.0425172, -20.513998, 12.701999)"/>
<path fill-rule="evenodd" fill="rgb(98.039216%, 1.176471%, 1.176471%)" fill-opacity="1" stroke-width="1.6803" stroke-linecap="butt" stroke-linejoin="miter" stroke="rgb(40%, 40%, 40%)" stroke-opacity="1" stroke-miterlimit="4" d="M 423.477947 176.163815 C 410.615492 176.531314 400.279591 187.050964 400.279591 200.005294 C 400.279591 213.143373 410.937054 223.800836 424.075133 223.800836 C 437.213212 223.800836 447.870675 213.143373 447.870675 200.005294 C 447.870675 186.867215 437.213212 176.209752 424.075133 176.209752 C 423.891383 176.209752 423.661697 176.163815 423.477947 176.163815 Z M 423.156386 183.835351 C 423.477947 183.881288 423.753571 183.881288 424.12107 183.881288 C 433.032914 183.881288 440.245076 191.09345 440.245076 200.005294 C 440.245076 208.917138 433.032914 216.1293 424.12107 216.1293 C 415.209226 216.1293 407.997064 208.917138 407.997064 200.005294 C 407.951126 191.415012 414.657978 184.340661 423.156386 183.835351 Z M 423.156386 183.835351 " transform="matrix(0.0425172, -0.0425172, 0.0425172, 0.0425172, -18.830999, 11.019)"/>
<path fill-rule="evenodd" fill="rgb(98.039216%, 1.176471%, 1.176471%)" fill-opacity="1" d="M 6.148438 2.25 L 6.59375 1.804688 L 6.574219 1.445312 L 5.957031 2.058594 Z M 6.148438 2.25 "/>
<path fill-rule="evenodd" fill="rgb(98.039216%, 1.176471%, 1.176471%)" fill-opacity="1" d="M 6.933594 3.039062 L 7.382812 2.589844 L 7.742188 2.613281 L 7.125 3.226562 Z M 6.933594 3.039062 "/>
<path fill-rule="evenodd" fill="rgb(40%, 100%, 0%)" fill-opacity="1" stroke-width="6" stroke-linecap="butt" stroke-linejoin="miter" stroke="rgb(40%, 40%, 40%)" stroke-opacity="1" stroke-miterlimit="4" d="M 80.557314 166.896564 C 80.557314 174.757399 74.190688 181.124026 66.329853 181.124026 C 58.469018 181.124026 52.102392 174.757399 52.102392 166.896564 C 52.102392 159.03573 58.469018 152.669103 66.329853 152.669103 C 74.190688 152.669103 80.557314 159.03573 80.557314 166.896564 Z M 80.557314 166.896564 " transform="matrix(0.060128, 0, 0, 0.060128, 0, 0)"/>
</svg>

<?xml version="1.0" encoding="UTF-8"?>
<svg width="9.1948" height="24" version="1.1" viewBox="0 0 9.1948 24" xmlns="http://www.w3.org/2000/svg">
 <g fill-rule="evenodd">
  <path transform="scale(.060128)" d="m12.863 103.88h30.859v294.23h-30.859z" fill="#999" stroke="#666" stroke-width="2.1059"/>
  <path d="m0.42188 7.8125 0.94531 0.94922 6.0742-6.0742 0.875-0.23438 0.42188-0.42188v-0.85547l-0.75-0.75h-0.91797l-0.39062 0.39062-0.24219 0.89453z" fill="#fff"/>
  <path transform="matrix(.042517 -.042517 .042517 .042517 -18.831 11.019)" d="m423.11 176.16c-7.0284 0.32156-13.23 3.675-17.456 8.7281l-145.67 0.045937v30.135h145.71c4.3181 5.3288 10.979 8.7741 18.375 8.7281 13.138 0 23.796-10.658 23.796-23.796s-10.658-23.796-23.796-23.796c-0.18375 0-0.41344-0.045937-0.59719-0.045937-0.13781 0.045937-0.22969 0.045937-0.3675 0zm-156.14 15.757 153.02-0.045938 0.045938 16.216h-153.06z" fill="#fa0303" stroke="#666" stroke-width="2"/>
  <path transform="matrix(.046295 -.046295 .042517 .042517 -20.514 12.702)" d="m444.29 200.01c0 11.025-8.1424 19.983-18.183 19.983-10.041 0-18.141-8.9119-18.183-19.983 0.042188-11.071 8.1846-20.029 18.225-20.029s18.183 8.9578 18.141 20.029z" fill="#fff" stroke="#666" stroke-width="2"/>
 </g>
 <g fill="#fa0303" fill-rule="evenodd">
  <path transform="matrix(.042517 -.042517 .042517 .042517 -18.831 11.019)" d="m423.48 176.16c-12.863 0.3675-23.198 10.887-23.198 23.842 0 13.138 10.658 23.796 23.796 23.796s23.796-10.658 23.796-23.796-10.658-23.796-23.796-23.796c-0.18375 0-0.41344-0.045937-0.59719-0.045937zm-0.32156 7.6716c0.32156 0.045938 0.59719 0.045938 0.96469 0.045938 8.9119 0 16.124 7.2122 16.124 16.124s-7.2122 16.124-16.124 16.124-16.124-7.2122-16.124-16.124c-0.045938-8.5903 6.6609-15.665 15.159-16.17z" stroke="#666" stroke-width="1.6803"/>
  <path d="m6.1484 2.25 0.44531-0.44531-0.019531-0.35938-0.61719 0.61328z"/>
  <path d="m6.9336 3.0391 0.44922-0.44922 0.35938 0.023437-0.61719 0.61328z"/>
 </g>
 <path transform="scale(.060128)" d="m80.557 166.9c0 7.8608-6.3666 14.227-14.227 14.227s-14.227-6.3666-14.227-14.227 6.3666-14.227 14.227-14.227 14.227 6.3666 14.227 14.227z" fill="#6f0" fill-rule="evenodd" stroke="#666" stroke-width="6"/>
</svg>
